X: 1172
T: İttifâkan Seyreden
C: Ahmet Avni Konuk
O: Turkey
F: http://compmusic.upf.edu/node/140
N: isfahan--kupe--duyek--ittifakan--ahmet_avni_konuk
N: makam= isfahan
N: form= kupe
N: usul= duyek = 8/4
M: 8/4
L: 1/16
K: C _2/4B   
Q: 1/4=57
%%MIDI tuningsystem comma53
z4 =B2^3/4c2 B4 c4 d4 c2e2 d3c d4  | \
w:  İt *  *  ti fâ *  *  kan   | 
z4 c2d2 c4 d2e2 e2d2 c2B2 c2BA B2c2  | 
w:  seyr_ *  *  e *  den  *  *  *  ol   | 
B4 B2c2 B4 c4 d8 f3e d2e2  | d4 e2g2 f4 e2f2 e2d2 ^c2d2 d6z2  | 
w:  *  meh *  *  ve şi  der  |  *  di  *  *  he *  mân    | 
z4 d2d2 d4 e4 e2f2 e2f2 g4 a2g2  | \
w:  Sür *  *  me  i  *  *  *  çeşm_  | 
f4 e2f2 .e4 d4 e3d c2d2 d2c4BA  | 
w:  *  i  *  *  si yâ *  *  *  hı  | 
B4 B2c2 .d4 e2f2 g2f2 e2d2 d3c e2d2  | \
w:  *  na  *  *  fe *  dâ *  *  *  dır   | 
c4 B2c2 B4 A4 A2c4BA A6z2  | 
w:  *  Is *  *  fa han    | 
|


